src/assets/icons/icon_menu.svg

<svg width="25" height="21" viewBox="0 0 25 21" fill="none" xmlns="http://www.w3.org/2000/svg">
<path d="M1 0.730769C0.447715 0.730769 0 1.17848 0 1.73077C0 2.28305 0.447715 2.73077 1 2.73077V0.730769ZM24 2.73077C24.5523 2.73077 25 2.28305 25 1.73077C25 1.17848 24.5523 0.730769 24 0.730769V2.73077ZM1 9.5C0.447715 9.5 0 9.94772 0 10.5C0 11.0523 0.447715 11.5 1 11.5V9.5ZM12.5 11.5C13.0523 11.5 13.5 11.0523 13.5 10.5C13.5 9.94772 13.0523 9.5 12.5 9.5V11.5ZM1 18.2692C0.447715 18.2692 0 18.7169 0 19.2692C0 19.8215 0.447715 20.2692 1 20.2692V18.2692ZM24 20.2692C24.5523 20.2692 25 19.8215 25 19.2692C25 18.7169 24.5523 18.2692 24 18.2692V20.2692ZM1 2.73077H24V0.730769H1V2.73077ZM1 11.5H12.5V9.5H1V11.5ZM1 20.2692H24V18.2692H1V20.2692Z" fill="black"/>
</svg>

<?xml version="1.0" encoding="utf-8"?>
<!-- Generator: Adobe Illustrator 26.0.0, SVG Export Plug-In . SVG Version: 6.00 Build 0)  -->
<svg version="1.1" id="Capa_1" xmlns="http://www.w3.org/2000/svg" xmlns:xlink="http://www.w3.org/1999/xlink" x="0px" y="0px"
	 viewBox="0 0 25 21" style="enable-background:new 0 0 25 21;" xml:space="preserve">
<path d="M1,0.7c-0.6,0-1,0.4-1,1s0.4,1,1,1V0.7z M24,2.7c0.6,0,1-0.4,1-1s-0.4-1-1-1V2.7z M1,9.5c-0.6,0-1,0.4-1,1s0.4,1,1,1V9.5z
	 M12.5,11.5c0.6,0,1-0.4,1-1s-0.4-1-1-1V11.5z M1,18.3c-0.6,0-1,0.4-1,1s0.4,1,1,1V18.3z M24,20.3c0.6,0,1-0.4,1-1s-0.4-1-1-1V20.3z
	 M1,2.7h23v-2H1V2.7z M1,11.5h11.5v-2H1V11.5z M1,20.3h23v-2H1V20.3z"/>
</svg>
